X:1
T:Title
%%score { ( 1 3 ) | ( 2 4 ) }
L:1/8
Q:1/4=100
M:4/4
K:F
V:1 treble nm="Grand Piano"
V:3 treble 
V:2 bass 
V:4 bass 
V:1
 F2 C2 F2 A2 | [Ac]3 [Ad] [Ac]2 [FA]2 | [EG]2 [FA]2 [GB]2 [Ac]2 | [Bd]2 [Ac]2 A4 | F2 C2 F2 A2 | %5
w: William~Stone * * *|||||
 [Ac]3 [Ad] [Ac]2 [_Ad]2 | e2 e2 G2 G2 | A2 =B2 [Ec]4 | [Fc]2 [Fc]2 [EB]2 [EB]2 | [FA]4 [CF]4 | %10
w: |||||
 [EG]3 [FA] [GB]2 [Ac]2 | [Bd]2 [Ac]2 [FA]4 | [FAc]2 [FAc]2 [FG=Bd]2 [FGBd]2 | %13
w: |||
 [E_A=Be]2 [G_Bce]2 [F=Acf]2 [DFBd]2 | [Fc]4 [DB]4 | z4 G2 z2 | [A,F]8 |] %17
w: ||||
V:2
 [F,A,C]2 [F,A,]2 [F,A,C]2 [F,CF]2 | [F,F]3 [F,F] [F,F]2 [F,C]2 | [C,C]2 [C,C]2 [C,C]2 [C,C]2 | %3
 [C,C]2 [C,C]2 [F,CF]4 | [F,A,C]2 [F,A,]2 [F,A,C]2 [F,CF]2 | [F,F]3 [F,F] [F,F]2 [F,C]2 | %6
 [G,CG]2 [G,CG]2 [G,CE]2 [G,CE]2 | [G,DF]2 [G,DF]2[K:bass] [C,C]4 | [F,A,]2 [F,A,]2 [C,C]2 [C,C]2 | %9
 [F,C]2 F,2 F,2 F,2 | [C,C]3 [C,C] [C,C]2 [C,C]2 | [C,C]2 [C,C]2 [F,C]4 | %12
 [A,,A,]2 [A,,A,]2 [G,,G,]2 [G,,G,]2 | [E,,E,]2 [C,,C,]2 [A,,,A,,]2 [B,,,B,,]2 | %14
 [A,,F,]4 [B,,F,]4 | [C,C]3- [C,-G,C-] [C,E,C]2 [C,B,]2 | F,,8 |] %17
V:3
 x8 | x8 | x8 | x8 | x8 | x8 | x8 | x8 | x8 | z2 C2 A,2 A,2 | x8 | x8 | x8 | x8 | x8 | %15
 A3 B z G, [EG]2 | x8 |] %17
V:4
 x8 | x8 | x8 | x8 | x8 | x8 | x8 | x4[K:bass] x4 | x8 | x8 | x8 | x8 | x8 | x8 | x8 | F,4 z4 | %16
 x8 |] %17

